src/content/resume/images/x-team.svg

<svg width="128" height="64" viewBox="0 0 128 64" fill="none" xmlns="http://www.w3.org/2000/svg">
<path fill-rule="evenodd" clip-rule="evenodd" d="M33.7459 17.7523L47.0299 30.5873L32.0657 45.2477L26 39.4336L34.4954 30.6372L27.5041 23.8299L33.7459 17.7523ZM47.9289 29.7122L41.6869 23.6347L47.7283 17.7523L53.9701 23.8299L47.9289 29.7122ZM66.1441 26.7007L67.3374 27.805L63.6102 31.2607L65.2328 34.6767L63.5642 35.3838L62.3148 32.4948L59.3516 35.4389L58.0926 34.4337L61.6408 31.0663L59.9065 27.6188L61.518 26.7566L62.9251 29.821L66.1441 26.7007ZM96.7438 32.7427L100.129 26.7496L100.22 27.3353L101.823 35.0872L100.026 35.1103L99.2632 31.2516L96.6475 35.6714L94.3688 31.2211L93.2278 35.1831H91.4832L93.9442 26.828L96.7438 32.7427ZM88.7294 26.8413V26.8439L88.7373 26.8326L90.9444 35.1515H89.1783L88.8708 33.8474H85.4251L84.4309 35.1613H82.5575L88.7294 26.8413ZM71.0108 27.3311L77.5537 27.3466L77.0843 28.9284L74.6815 28.9226L72.8295 35.1383L71.092 35.1341L72.9443 28.9184L70.5411 28.9126L71.0108 27.3311ZM82.6212 31.9841L78.955 31.9755L78.4609 33.6242L82.2394 33.6053L81.7826 35.1314L76.2901 35.1459L78.6113 27.3487L84.5111 27.3626L84.0546 28.8889L79.8809 28.8788L79.411 30.4716L83.0772 30.4805L82.6212 31.9841ZM88.0523 30.3749L86.5705 32.3332H88.5137L88.0523 30.3749ZM69.9316 31.978L66.4571 31.9707L66.9502 30.4987L70.4248 30.5062L69.9316 31.978ZM41.6362 37.5898L47.7284 43.5219L53.9701 37.4445L47.8777 31.5124L41.6362 37.5898Z" fill="currentColor"/>
</svg>

<svg xmlns="http://www.w3.org/2000/svg" width="128" height="64" fill="none" viewBox="0 0 128 64"><path fill="currentColor" fill-rule="evenodd" d="M33.746 17.752 47.03 30.587l-14.964 14.66L26 39.435l8.495-8.797-6.99-6.807 6.24-6.078Zm14.183 11.96-6.242-6.077 6.041-5.883 6.242 6.078-6.041 5.882Zm18.215-3.011 1.193 1.104-3.727 3.456 1.623 3.416-1.669.707-1.25-2.89-2.962 2.945-1.26-1.005 3.549-3.368-1.734-3.447 1.611-.862 1.407 3.064 3.22-3.12Zm30.6 6.042 3.385-5.993.091.585 1.603 7.752-1.797.023-.763-3.858-2.616 4.42-2.278-4.45-1.141 3.961h-1.745l2.461-8.355 2.8 5.915Zm-8.015-5.902v.003l.008-.011 2.207 8.319h-1.766l-.307-1.305h-3.446l-.994 1.314h-1.873l6.171-8.32Zm-17.718.49 6.543.016-.47 1.581-2.403-.005-1.852 6.215-1.737-.004 1.852-6.216-2.403-.005.47-1.582Zm11.61 4.653-3.666-.009-.494 1.65 3.778-.02-.456 1.526-5.493.015 2.321-7.797 5.9.014-.456 1.526-4.174-.01-.47 1.593 3.666.008-.456 1.504Zm5.431-1.61-1.482 1.96h1.944l-.462-1.96Zm-18.12 1.604-3.475-.007.493-1.472 3.475.007-.493 1.472ZM41.636 37.59l6.092 5.932 6.242-6.078-6.092-5.932-6.242 6.078Z" clip-rule="evenodd"/></svg>
